X: 15
P: No. XV.
M: 6/8
L: 1/8
K: G
V: 1
|:\
|:\
d2d def | g3 g3 | c2c cdc | e3 g3 |\
dcB c2e | dBd D2D | EFG AFD | G3 G3 :|
|:\
ded dBG | efe efg | dcB AGF | G3 G3 :|
V: 2 clef=bass middle=d
|:\
g2z d2z | c2d e2f | g2z a2z | g2z a2z |\
g2z e2z | c2z d2z | c2z d2z | GBd G3 :|
|:\
d3 d3 | Bdc BAG | c3 c3 | c2c cef |\
g2z e2z | d2z g2z | e2z d2z | GBd G3 :|
|:\
e3 d3 | d3 d3 | e3 c3 | d3 G3 |\

